X: 188
T: Draper's Gardens
P: Longways for as many as will
%R:
B: "The Dancing-Master" printed by John Walsh, London
S: 6: CCDM1 http://imslp.org/wiki/The_Compleat_Country_Dancing-Master_(Various) V.1 p.20 #42
Z: 2013 John Chambers <jc:trillian.mit.edu>
N: Repeats added to satisfy the "Each Strain twice" instruction.
M: 3/4
L: 1/8
K: D
% - - - - - - - - - - - - - - - - - - - - - - - - -
|:\
AF Ad AF | dA dfdA | fd fagf | e3 d e2 |\
AF Ad AF | dA dfdA | fd fagf | e3 d d2 :|
|:\
ec/d/ ec Ae | fd/e/ fd Bb | ^ge a2 a2 | a3 ^g a2 |\
aa/g/ fafd | ff/e/ dfdA | d>e f>e g>f | e4 d2 :|
% - - - - - - - - - - - - - - - - - - - - - - - - -
%%center Note, Each Strain is to be play'd twice over.
%%begintext align
%% The 1st Man and 2d Wo. sett and turn single, then Back to
%% Back and turn .| The other two do the same :| Then the 1st
%% and 2d Wo. change Places, the other two do the same; then
%% Hands half round, and right and left half round, and lead thro
%% the Bottom, then thro' the Top, and cast off and turn :|
%% [CCDM1]
%%endtext

%%sep 1 1 500
%%sep 1 1 500
